X: 90
T: Polska fr\aan Ovansj\"o
O: G\"astrikland
R: polska
S: http://www.folksweden.com/files/090-Polska_fran_Ovansjo.pdf (Tim Rued)
Z: 2021 John Chambers <jc:trillian.mit.edu>
M: 3/4
L: 1/16
K: Dm
|: d3e f4 a3f | f2gf e8 | D3E E2F2 F2A2 | AGBG A4 A,4 :: a3g f2^c2 d2ef | gagf e2c2 c2c2 |
| d3c B2A2 G2F2 | FEGE C8 | F3A AGBG A4 | A3d d^cec d2f2 | a4 A4 ^c3d | fed^c d4 D4 :|
